plasma/desktoptheme/Materia/widgets/checkmarks.svg

<svg xmlns="http://www.w3.org/2000/svg" width="70" height="64" version="1">
 <g id="radiobutton" transform="translate(0,8)">
  <rect style="opacity:0.001" width="32" height="32" x="0" y="-8"/>
  <path style="fill:#8ab4f8" d="M 16,-5 C 8.839535,-5 3.000008,0.839535 3,8 c 8e-6,7.160465 5.839535,13 13,13 C 23.160449,21 29,15.160449 29,8 29,0.839551 23.160449,-5 16,-5 Z m 0,3 C 21.542784,-2 26,2.457216 26,8 26,13.542784 21.542784,18 16,18 10.4572,18 6,13.5428 6,8 c 5e-6,-5.5428 4.4572,-10 10,-10 z m 0,5 a 5,5 0 0 0 -5,5 5,5 0 0 0 5,5 5,5 0 0 0 5,-5 5,5 0 0 0 -5,-5 z"/>
 </g>
 <g id="checkbox" transform="translate(0,40)">
  <rect style="opacity:0.001" width="32" height="32" x="0" y="-8"/>
  <path style="fill:#8ab4f8" d="m 6.2499985,-5 c -1.8005,0 -3.25,1.4495 -3.25,3.25 v 19.5 c 0,1.8005 1.4495,3.25 3.25,3.25 H 25.750001 c 1.8005,0 3.25,-1.4495 3.25,-3.25 v -19.5 c 0,-1.8005 -1.4495,-3.25 -3.25,-3.25 z M 21.720701,1.003906 c 1.56542,-0.09093 3.14258,1.556171 1.73047,3.246094 L 14.466795,15 8.6796855,10.083984 C 6.8721465,8.549102 8.9979975,4.916531 11.205076,6.496094 l 3.117188,2.228515 5.947267,-6.986328 c 0.40801,-0.479471 0.92937,-0.704067 1.45117,-0.734375 z"/>
 </g>
 <g id="22-22-radiobutton" transform="translate(27,13)">
  <rect style="opacity:0.001" width="22" height="22" x="5" y="-3"/>
  <path style="fill:#8ab4f8" d="m 16,-1 c -4.957245,0 -8.999994,4.042755 -9,9 6e-6,4.957245 4.042755,9 9,9 4.957234,0 9,-4.042766 9,-9 0,-4.957234 -4.042766,-9 -9,-9 z m 0,2 c 3.879949,0 7,3.120052 7,7 0,3.879949 -3.120051,7 -7,7 -3.87996,0 -7,-3.12004 -7,-7 3e-6,-3.87996 3.12004,-7 7,-7 z m 0,3 a 4,4 0 0 0 -4,4 4,4 0 0 0 4,4 4,4 0 0 0 4,-4 4,4 0 0 0 -4,-4 z"/>
 </g>
 <g id="22-22-checkbox" transform="translate(27,45)">
  <rect style="opacity:0.001" width="22" height="22" x="5" y="-3"/>
  <path style="fill:#8ab4f8" d="m 9.25,-0.99999995 c -1.2465,0 -2.25,1.0035 -2.25,2.25000005 V 14.75 C 7,15.9965 8.0035,17 9.25,17 h 13.5 C 23.9965,17 25,15.9965 25,14.75 V 1.2500001 C 25,0.00350005 23.9965,-0.99999995 22.75,-0.99999995 Z M 20.289062,3.0019531 c 1.174062,-0.06494 2.357918,1.111272 1.298829,2.318359 L 14.849609,13 10.509766,9.4882811 c -1.355655,-1.096344 0.237267,-3.690758 1.892578,-2.5625 l 2.339844,1.591797 4.460937,-4.990234 c 0.306007,-0.342479 0.694585,-0.503743 1.085937,-0.525391 z"/>
 </g>
 <g id="16-16-checkbox" transform="translate(46,48)">
  <rect style="opacity:0.001" width="16" height="16" x="8" y="0"/>
  <path style="fill:#8ab4f8" d="M 10.75,0.99999995 C 9.7805,0.99999995 9,1.7805 9,2.75 v 10.5 C 9,14.2195 9.7805,15 10.75,15 h 10.5 C 22.2195,15 23,14.2195 23,13.25 V 2.75 C 23,1.7805 22.2195,0.99999995 21.25,0.99999995 Z m 8.824219,3.00195315 c 0.978385,-0.051955 1.964605,0.8897989 1.082031,1.8554688 L 15.042969,12 11.425781,9.1914062 C 10.296068,8.314331 11.622529,6.2380186 13.001953,7.140625 l 1.949219,1.2734375 3.716797,-3.9921875 c 0.255006,-0.2739834 0.580122,-0.4026033 0.90625,-0.4199219 z"/>
 </g>
 <g id="16-16-radiobutton" transform="translate(46,16)">
  <rect style="opacity:0.001" width="16" height="16" x="8" y="0"/>
  <path style="fill:#8ab4f8" d="m 16,1 c -3.855635,0 -6.999996,3.144365 -7,7 4e-6,3.855635 3.144365,7 7,7 3.855626,0 7,-3.144374 7,-7 0,-3.8556263 -3.144374,-7 -7,-7 z m 0,2 c 2.771391,0 5,2.2286084 5,5 0,2.771391 -2.228609,5 -5,5 -2.7714,0 -5,-2.2286 -5,-5 3e-6,-2.7714 2.2286,-5 5,-5 z m 0,2 a 3,3 0 0 0 -3,3 3,3 0 0 0 3,3 3,3 0 0 0 3,-3 3,3 0 0 0 -3,-3 z"/>
 </g>
</svg>

<?xml version="1.0" encoding="UTF-8"?>
<svg width="70" height="64" version="1" xmlns="http://www.w3.org/2000/svg">
 <g id="radiobutton" transform="translate(0,8)">
  <rect y="-8" width="32" height="32" opacity=".001"/>
  <path d="m16-5c-7.1605 0-13 5.8395-13 13 8e-6 7.1605 5.8395 13 13 13 7.1604 0 13-5.8396 13-13s-5.8396-13-13-13zm0 3c5.5428 0 10 4.4572 10 10s-4.4572 10-10 10c-5.5428 0-10-4.4572-10-10 5e-6 -5.5428 4.4572-10 10-10zm0 5a5 5 0 0 0-5 5 5 5 0 0 0 5 5 5 5 0 0 0 5-5 5 5 0 0 0-5-5z" fill="#8ab4f8"/>
 </g>
 <g id="checkbox" transform="translate(0,40)">
  <rect y="-8" width="32" height="32" opacity=".001"/>
  <path d="m6.25-5c-1.8005 0-3.25 1.4495-3.25 3.25v19.5c0 1.8005 1.4495 3.25 3.25 3.25h19.5c1.8005 0 3.25-1.4495 3.25-3.25v-19.5c0-1.8005-1.4495-3.25-3.25-3.25zm15.471 6.0039c1.5654-0.09093 3.1426 1.5562 1.7305 3.2461l-8.9844 10.75-5.7871-4.916c-1.8075-1.5349 0.31831-5.1675 2.5254-3.5879l3.1172 2.2285 5.9473-6.9863c0.40801-0.47947 0.92937-0.70407 1.4512-0.73438z" fill="#8ab4f8"/>
 </g>
 <g id="22-22-radiobutton" transform="translate(27,13)">
  <rect x="5" y="-3" width="22" height="22" opacity=".001"/>
  <path d="m16-1c-4.9572 0-9 4.0428-9 9 6e-6 4.9572 4.0428 9 9 9 4.9572 0 9-4.0428 9-9s-4.0428-9-9-9zm0 2c3.8799 0 7 3.1201 7 7 0 3.8799-3.1201 7-7 7-3.88 0-7-3.12-7-7 3e-6 -3.88 3.12-7 7-7zm0 3a4 4 0 0 0-4 4 4 4 0 0 0 4 4 4 4 0 0 0 4-4 4 4 0 0 0-4-4z" fill="#8ab4f8"/>
 </g>
 <g id="22-22-checkbox" transform="translate(27,45)">
  <rect x="5" y="-3" width="22" height="22" opacity=".001"/>
  <path d="m9.25-1c-1.2465 0-2.25 1.0035-2.25 2.25v13.5c0 1.2465 1.0035 2.25 2.25 2.25h13.5c1.2465 0 2.25-1.0035 2.25-2.25v-13.5c0-1.2465-1.0035-2.25-2.25-2.25zm11.039 4.002c1.1741-0.06494 2.3579 1.1113 1.2988 2.3184l-6.7383 7.6797-4.3398-3.5117c-1.3557-1.0963 0.23727-3.6908 1.8926-2.5625l2.3398 1.5918 4.4609-4.9902c0.30601-0.34248 0.69458-0.50374 1.0859-0.52539z" fill="#8ab4f8"/>
 </g>
 <g id="16-16-checkbox" transform="translate(46,48)">
  <rect x="8" width="16" height="16" opacity=".001"/>
  <path d="m10.75 1c-0.9695 0-1.75 0.7805-1.75 1.75v10.5c0 0.9695 0.7805 1.75 1.75 1.75h10.5c0.9695 0 1.75-0.7805 1.75-1.75v-10.5c0-0.9695-0.7805-1.75-1.75-1.75zm8.8242 3.002c0.97838-0.051955 1.9646 0.8898 1.082 1.8555l-5.6133 6.1426-3.6172-2.8086c-1.1297-0.87708 0.19675-2.9534 1.5762-2.0508l1.9492 1.2734 3.7168-3.9922c0.25501-0.27398 0.58012-0.4026 0.90625-0.41992z" fill="#8ab4f8"/>
 </g>
 <g id="16-16-radiobutton" transform="translate(46,16)">
  <rect x="8" width="16" height="16" opacity=".001"/>
  <path d="m16 1c-3.8556 0-7 3.1444-7 7 4e-6 3.8556 3.1444 7 7 7 3.8556 0 7-3.1444 7-7 0-3.8556-3.1444-7-7-7zm0 2c2.7714 0 5 2.2286 5 5 0 2.7714-2.2286 5-5 5-2.7714 0-5-2.2286-5-5 3e-6 -2.7714 2.2286-5 5-5zm0 2a3 3 0 0 0-3 3 3 3 0 0 0 3 3 3 3 0 0 0 3-3 3 3 0 0 0-3-3z" fill="#8ab4f8"/>
 </g>
</svg>
